X: 41835
T: Vinden
R: waltz
M: 3/4
K: Eminor
B>A GF ED|F>E DB, CD|E2 E/F/G/A/ BA/G/|AD DD DA|
B/A/G/F/ GF ED|F>E DB, CD|E2 E/F/G/A/ BA/G/|1 FE/D/ E4:|2 FE/D/ (E2 E)D/E/||
|:F>E DA GF|GE cB GA|B2 c2 B2|A3 A GF|
E>D C(F F/)E/D|G>F E(A A/)G/F|G2 C2 CD|1 (D4 D)D/E/:|2 D6||

